build/img/language.svg

<svg width="18" height="19" viewBox="0 0 18 19" fill="none" xmlns="http://www.w3.org/2000/svg">
<g opacity="0.8">
<path d="M2 9.3125C2 13.3512 5.27381 16.625 9.3125 16.625C13.3512 16.625 16.625 13.3512 16.625 9.3125C16.625 5.27381 13.3512 2 9.3125 2C5.27381 2 2 5.27381 2 9.3125Z" stroke="#36373C" stroke-linecap="round" stroke-linejoin="round"/>
<path d="M10.9079 2.21077L10.6186 1.80291L9.80291 2.38137L10.0921 2.78923L10.9079 2.21077ZM9.60448 16.1941C9.43555 16.4126 9.47568 16.7266 9.69411 16.8955C9.91255 17.0645 10.2266 17.0243 10.3955 16.8059L9.60448 16.1941ZM10.5 2.5C10.0921 2.78923 10.092 2.78907 10.0919 2.78891C10.0919 2.78887 10.0918 2.78873 10.0917 2.78865C10.0916 2.78849 10.0915 2.78837 10.0915 2.78828C10.0914 2.78811 10.0913 2.78808 10.0914 2.78819C10.0916 2.78842 10.0921 2.78922 10.0931 2.7906C10.095 2.79334 10.0984 2.79838 10.1033 2.80569C10.1131 2.82032 10.1286 2.84404 10.1491 2.87677C10.1902 2.94223 10.251 3.04367 10.3252 3.18032C10.4736 3.45364 10.6752 3.86755 10.8779 4.41601C11.2831 5.51233 11.6937 7.14768 11.6937 9.27594H12.6937C12.6937 7.01669 12.2575 5.26408 11.8159 4.0693C11.5952 3.47222 11.3732 3.0148 11.2041 2.70318C11.1195 2.54735 11.048 2.42792 10.9964 2.34562C10.9706 2.30447 10.9498 2.2726 10.9347 2.2501C10.9272 2.23884 10.9212 2.22993 10.9166 2.22337C10.9144 2.2201 10.9125 2.21741 10.911 2.2153C10.9103 2.21425 10.9097 2.21335 10.9091 2.21259C10.9089 2.21222 10.9086 2.21188 10.9084 2.21157C10.9083 2.21142 10.9082 2.21122 10.9081 2.21114C10.908 2.21095 10.9079 2.21077 10.5 2.5ZM11.6937 9.27594C11.6937 11.386 11.1662 13.1236 10.6386 14.3334C10.3749 14.938 10.112 15.409 9.91685 15.7263C9.81932 15.8849 9.73888 16.0049 9.68396 16.0838C9.65651 16.1232 9.63545 16.1523 9.62184 16.1708C9.61504 16.1801 9.61011 16.1867 9.60717 16.1906C9.6057 16.1925 9.60473 16.1938 9.60428 16.1944C9.60405 16.1947 9.60395 16.1948 9.60399 16.1948C9.604 16.1947 9.60405 16.1947 9.60414 16.1946C9.60418 16.1945 9.60426 16.1944 9.60428 16.1944C9.60438 16.1942 9.60448 16.1941 10 16.5C10.3955 16.8059 10.3956 16.8057 10.3958 16.8056C10.3958 16.8055 10.396 16.8053 10.3961 16.8052C10.3963 16.8049 10.3965 16.8046 10.3968 16.8042C10.3974 16.8035 10.3981 16.8026 10.3989 16.8015C10.4006 16.7993 10.4027 16.7964 10.4054 16.7929C10.4108 16.7858 10.4182 16.7759 10.4274 16.7633C10.446 16.7381 10.472 16.702 10.5046 16.6553C10.5696 16.5619 10.6606 16.426 10.7687 16.2501C10.9849 15.8985 11.2704 15.3861 11.5552 14.7332C12.1244 13.4278 12.6937 11.5534 12.6937 9.27594H11.6937Z" fill="#36373C"/>
<path d="M7.79557 16.8543C7.96259 17.0742 8.27626 17.1171 8.49616 16.9501C8.71607 16.783 8.75895 16.4694 8.59193 16.2495L7.79557 16.8543ZM8.38335 2.821L8.70435 2.43766L7.93766 1.79565L7.61665 2.179L8.38335 2.821ZM8.19375 16.5519C8.59193 16.2495 8.59203 16.2496 8.59212 16.2497C8.59214 16.2497 8.59222 16.2498 8.59226 16.2499C8.59234 16.25 8.59238 16.2501 8.59239 16.2501C8.59242 16.2501 8.59231 16.25 8.59207 16.2497C8.5916 16.249 8.59061 16.2477 8.58912 16.2457C8.58614 16.2417 8.58117 16.2349 8.57432 16.2254C8.56064 16.2065 8.5395 16.1768 8.51196 16.1366C8.45687 16.0562 8.37626 15.934 8.27858 15.7729C8.0831 15.4503 7.81987 14.9725 7.55593 14.3611C7.02769 13.1373 6.5 11.3862 6.5 9.27594H5.5C5.5 11.5532 6.06919 13.4401 6.63782 14.7574C6.92232 15.4165 7.20753 15.935 7.42338 16.2912C7.53135 16.4693 7.62213 16.6071 7.68702 16.7018C7.71946 16.7492 7.74545 16.7858 7.7639 16.8113C7.77313 16.824 7.78047 16.834 7.78579 16.8412C7.78845 16.8448 7.79061 16.8477 7.79225 16.8499C7.79306 16.851 7.79375 16.8519 7.79431 16.8526C7.79458 16.853 7.79483 16.8533 7.79504 16.8536C7.79514 16.8537 7.79528 16.8539 7.79533 16.854C7.79546 16.8541 7.79557 16.8543 8.19375 16.5519ZM6.5 9.27594C6.5 7.15999 6.98196 5.5339 7.45825 4.44267C7.69658 3.89664 7.93364 3.48425 8.10843 3.2116C8.1958 3.07531 8.26753 2.97408 8.31594 2.90868C8.34014 2.87599 8.3585 2.85227 8.37006 2.83761C8.37584 2.83029 8.37992 2.82524 8.38217 2.82246C8.3833 2.82108 8.38397 2.82026 8.38417 2.82002C8.38427 2.81989 8.38426 2.81992 8.38412 2.82008C8.38405 2.82016 8.38395 2.82028 8.38382 2.82043C8.38376 2.82051 8.38364 2.82065 8.38361 2.82069C8.38348 2.82084 8.38335 2.821 8 2.5C7.61665 2.179 7.6165 2.17917 7.61634 2.17936C7.61628 2.17944 7.61612 2.17963 7.61599 2.17978C7.61574 2.18008 7.61546 2.18042 7.61515 2.18079C7.61453 2.18154 7.61379 2.18244 7.61293 2.18348C7.61121 2.18557 7.60901 2.18824 7.60635 2.19151C7.60104 2.19804 7.59389 2.20693 7.58502 2.21817C7.56728 2.24065 7.54267 2.27253 7.51219 2.31371C7.45122 2.39607 7.3667 2.51571 7.26657 2.6719C7.06636 2.98419 6.80342 3.44313 6.54175 4.04264C6.01804 5.2425 5.5 7.00439 5.5 9.27594H6.5Z" fill="#36373C"/>
<path d="M3 12H16" stroke="#36373C" stroke-linecap="square" stroke-linejoin="round"/>
<path d="M3 7H16" stroke="#36373C" stroke-linecap="square" stroke-linejoin="round"/>
</g>
</svg>

<svg width="18" height="19" fill="none" xmlns="http://www.w3.org/2000/svg"><g opacity=".8"><path d="M2 9.313a7.312 7.312 0 1 0 14.625 0A7.312 7.312 0 0 0 2 9.313Z" stroke="#36373C" stroke-linecap="round" stroke-linejoin="round"/><path d="m10.908 2.21-.29-.407-.815.578.29.408.815-.578ZM9.604 16.195a.5.5 0 0 0 .792.612l-.792-.612ZM10.5 2.5a64.51 64.51 0 0 1-.408.289l.001.002a1.423 1.423 0 0 1 .056.086c.041.065.102.167.176.303.149.274.35.688.553 1.236.405 1.096.816 2.732.816 4.86h1c0-2.26-.437-4.012-.878-5.207a10.534 10.534 0 0 0-.612-1.366 6.645 6.645 0 0 0-.293-.488l-.002-.002v-.001c-.001-.001-.001-.001-.409.288Zm1.194 6.776c0 2.11-.528 3.848-1.055 5.057a11.302 11.302 0 0 1-.722 1.393 7.586 7.586 0 0 1-.31.465l-.003.003.396.306.396.306v-.002l.003-.002.006-.01a5.166 5.166 0 0 0 .1-.138c.065-.092.156-.228.264-.404.216-.351.501-.864.786-1.517a13.68 13.68 0 0 0 1.139-5.457h-1Zm-3.898 7.578a.5.5 0 0 0 .796-.604l-.796.604Zm.587-14.033.321-.383-.766-.642-.321.383.766.642Zm-.19 13.73a89.335 89.335 0 0 1 .4-.301l-.004-.004a1.787 1.787 0 0 1-.077-.11 7.846 7.846 0 0 1-.233-.363c-.196-.323-.46-.8-.723-1.412A12.87 12.87 0 0 1 6.5 9.276h-1c0 2.277.57 4.164 1.138 5.481.284.66.57 1.178.785 1.534a8.824 8.824 0 0 0 .371.562h.001v.001l.399-.302ZM6.5 9.277c0-2.116.482-3.742.958-4.833.239-.546.476-.959.65-1.231a5.521 5.521 0 0 1 .274-.39l.002-.002L8 2.5a50.4 50.4 0 0 0-.384-.32l-.003.003-.007.009a2.348 2.348 0 0 0-.094.122 6.514 6.514 0 0 0-.245.358 9.8 9.8 0 0 0-.725 1.37C6.018 5.243 5.5 7.005 5.5 9.277h1Z" fill="#36373C"/><path d="M3 12h13M3 7h13" stroke="#36373C" stroke-linecap="square" stroke-linejoin="round"/></g></svg>
